X: 28894
T: Mystics' Slip Jigs, The
R: slip jig
M: 9/8
K: Amajor
c2 B B2 A F2 c|B2 A F2 E A3-|A2 c B2 A F2 E|A2 F E2 C B,3|
B2 c B2 A F2 c|B2 A F2 E A3-|A2 F B2 A F2 E|A2 F E2 C B,3:|
C2 F F2 C F2 c|B2 A F2 C E2 F|C2 F F2 C F2 c|B2 A F2 C E3|
C2 F F2 C F2 c|1 B2 A B2 c e2 f|a2 f e2 c f2 e|c2 B A2 F 3.E.C.B, ]:|
[2 B2 A B2 c 3efa|b2 a f2 e 3.c.f.e|c2 B A2 F 3.E.C.B, ]||

